client/src/assets/public/images/icons/instagram.svg

<?xml version="1.0" encoding="UTF-8"?>
<svg width="20px" height="20px" viewBox="0 0 20 20" version="1.1" xmlns="http://www.w3.org/2000/svg" xmlns:xlink="http://www.w3.org/1999/xlink">
    <!-- Generator: Sketch 48.2 (47327) - http://www.bohemiancoding.com/sketch -->
    <title>instagram</title>
    <desc>Created with Sketch.</desc>
    <defs></defs>
    <g id="Appcademos-Footer" stroke="none" stroke-width="1" fill="none" fill-rule="evenodd" transform="translate(-831.000000, -425.000000)">
        <g id="Footer" fill="#484848" fill-rule="nonzero">
            <g id="Content" transform="translate(48.000000, 271.000000)">
                <g id="instagram" transform="translate(783.000000, 154.000000)">
                    <path d="M14.1666667,1.66666667 C15.2708333,1.66666667 16.3177083,2.10416667 17.109375,2.890625 C17.9010417,3.67708333 18.3333333,4.72916667 18.3333333,5.83333333 L18.3333333,14.1666667 C18.3333333,15.2708333 17.8958333,16.3177083 17.109375,17.109375 C16.3229167,17.9010417 15.2708333,18.3333333 14.1666667,18.3333333 L5.83333333,18.3333333 C4.72916667,18.3333333 3.68229167,17.8958333 2.890625,17.109375 C2.09895833,16.3229167 1.66666667,15.2708333 1.66666667,14.1666667 L1.66666667,5.83333333 C1.66666667,4.72916667 2.10416667,3.68229167 2.890625,2.890625 C3.67708333,2.09895833 4.72916667,1.66666667 5.83333333,1.66666667 L14.1666667,1.66666667 Z M14.1666667,0 L5.83333333,0 C2.625,0 0,2.625 0,5.83333333 L0,14.1666667 C0,17.375 2.625,20 5.83333333,20 L14.1666667,20 C17.375,20 20,17.375 20,14.1666667 L20,5.83333333 C20,2.625 17.375,0 14.1666667,0 Z" id="Shape"></path>
                    <path d="M15.4166667,5.83333333 C14.7239583,5.83333333 14.1666667,5.27604167 14.1666667,4.58333333 C14.1666667,3.890625 14.7239583,3.33333333 15.4166667,3.33333333 C16.1041667,3.33333333 16.6666667,3.890625 16.6666667,4.58333333 C16.6666667,5.27604167 16.1041667,5.83333333 15.4166667,5.83333333 Z M10,6.66666667 C11.8385417,6.66666667 13.3333333,8.16145833 13.3333333,10 C13.3333333,11.8385417 11.8385417,13.3333333 10,13.3333333 C8.16145833,13.3333333 6.66666667,11.8385417 6.66666667,10 C6.66666667,8.16145833 8.16145833,6.66666667 10,6.66666667 Z M10,5 C7.23958333,5 5,7.23958333 5,10 C5,12.7604167 7.23958333,15 10,15 C12.7604167,15 15,12.7604167 15,10 C15,7.23958333 12.7604167,5 10,5 Z" id="Shape"></path>
                </g>
            </g>
        </g>
    </g>
</svg>

<svg xmlns="http://www.w3.org/2000/svg" width="20" height="20" fill="#484848" fill-rule="nonzero"><path d="M14.167 1.667a4.16 4.16 0 0 1 2.943 1.224 4.13 4.13 0 0 1 1.224 2.943v8.333a4.16 4.16 0 0 1-1.224 2.943 4.13 4.13 0 0 1-2.943 1.224H5.833A4.16 4.16 0 0 1 2.89 17.11a4.13 4.13 0 0 1-1.224-2.943V5.833A4.16 4.16 0 0 1 2.89 2.89a4.13 4.13 0 0 1 2.943-1.224h8.333zm0-1.667H5.833C2.625 0 0 2.625 0 5.833v8.333C0 17.375 2.625 20 5.833 20h8.333C17.375 20 20 17.375 20 14.167V5.833C20 2.625 17.375 0 14.167 0zm1.25 5.833c-.693 0-1.25-.557-1.25-1.25s.557-1.25 1.25-1.25a1.25 1.25 0 1 1 0 2.5zM10 6.667A3.34 3.34 0 0 1 13.333 10 3.34 3.34 0 0 1 10 13.333 3.34 3.34 0 0 1 6.667 10 3.34 3.34 0 0 1 10 6.667zM10 5c-2.76 0-5 2.24-5 5s2.24 5 5 5 5-2.24 5-5-2.24-5-5-5z"/></svg>
